X:2
T:Lover Man
C:Davis-Ramirez-Sherman
L:1/8
M:C
I:linebreak $
K:Db
"Bbm" z B cB"Eb7" e2 Bc |"Bbm" dB e2"Eb7" e4 |"Ebm" z e fe"Ab7" a2 ef |"Ebm" ge a2 a4 |$
"Db7" _fded _f d3 |"Gb7" _fded a d3 Ox/||"A7" z =A de"Ab7" _fedB ||1
"Db" d4"Db6" x4"Cm" z4 "F" x4:|2$"Db" d8 ||[K:Eb]"Fm" a2 fg"FmM" a2 fg |"Fm" a2 fg"E7" ab a2 |
"Eb" g2 ef"Fm" gf e2 |$"Gm" g8 "Fm" x4||[K:Db]"Ebm" g2 ef"EbmM" g2 ef |"Ebm" ge f2"D7" ga g2 |
"Db" f4"Gb" fe d2 |$"Cø" f8"F7" "_D.C. al Coda" x4 ||O"A7" z =A de"Eb7" _fe"D7"dB |"Db7" d8 |]

